app/assets/images/warning.svg

<svg width="30" height="30" viewBox="0 0 30 30" version="1.1" xmlns="http://www.w3.org/2000/svg" xmlns:xlink="http://www.w3.org/1999/xlink"><title>attention</title><desc>Created with Sketch.</desc><g id="Browser-extension" stroke="none" stroke-width="1" fill="none" fill-rule="evenodd"><g id="2.-Setup:-Master-Password-1" transform="translate(-181.000000, -248.000000)" fill="#9A7E47"><g id="attention" transform="translate(181.000000, 248.000000)"><path d="M15.0008415,0.00319011152 C11.54486,0.00319011152 8.93697756,0.000306554842 6.87876435,0.232504864 C4.82047728,0.464706865 3.21651844,0.947855833 2.07848236,2.08721147 C0.940446273,3.22656711 0.458682587,4.83035629 0.227899799,6.88698571 C-0.0028829886,8.94361513 8.73115187e-07,11.5512586 8.73115187e-07,15.0022963 C8.73115187e-07,18.4550324 -0.001441427,21.0610883 0.233667523,23.1190838 C0.46877795,25.1771531 0.959174758,26.7823822 2.10012794,27.918858 C3.24108111,29.0553338 4.84212286,29.5384864 6.89893292,29.7706848 C8.95433981,30.0028864 11.5592682,29.9999991 15.0007012,29.9999991 C18.443685,29.9999991 21.0472102,30.0014413 23.1024694,29.7677975 C25.1593164,29.5341556 26.7632752,29.0452469 27.9027514,27.9058543 C29.0422276,26.7679386 29.5312286,25.1655894 29.7663316,23.1075569 C30.0014421,21.0509275 29.9999983,18.4462377 29.9999983,14.9992614 C29.9999983,11.5537619 30.0028821,8.94896134 29.7720994,6.89391954 C29.5413166,4.83729012 29.0581128,3.23350094 27.9215168,2.0941453 C26.7849208,0.95478966 25.182402,0.467317204 23.1227118,0.232202109 C21.0644248,-0.00143982455 18.4535145,1.07717395e-07 14.9976807,1.07717395e-07 L15.0008415,0.00319011152 Z M15.0008415,2.31077388 C18.4553829,2.31077388 21.0314727,2.32086818 22.8648111,2.52999434 C24.6981496,2.7391205 25.6933588,3.12708625 26.290477,3.72705803 C26.8876321,4.32558988 27.2770826,5.3221707 27.4833471,7.15527832 C27.6896078,8.9869091 27.6953792,11.5599942 27.6953792,15.0040168 C27.6953792,18.4480395 27.6838401,21.0196108 27.4746918,22.8512785 C27.2655435,24.6829093 26.8746565,25.6780502 26.2731812,26.2794988 C25.6717059,26.8794706 24.6735795,27.2703199 22.8431582,27.4780024 C21.0127737,27.6871286 18.4438844,27.6972229 15.0024514,27.6972229 C11.5609077,27.6972229 8.9906521,27.6900122 7.15879064,27.4837732 C5.3284062,27.2775343 4.33171995,26.8881213 3.73020769,26.2895894 C3.13017245,25.6910576 2.73928179,24.6944767 2.52869711,22.8613691 C2.31954883,21.0297383 2.30800969,18.4551764 2.30800969,15.0056155 C2.30800969,11.5543194 2.3137811,8.9800528 2.52004183,7.14838511 C2.72630257,5.31531441 3.11575683,4.3201366 3.71291191,3.72308161 C4.31006699,3.12598969 5.30243298,2.73514038 7.13569759,2.52889778 C8.96896221,2.32265886 11.5464182,2.31544812 15.0011443,2.31544812 L15.0008415,2.31077388 Z" id="Fill-1"/><path d="M14.983733,6.0000994 C14.4325302,6.01041301 13.9925791,6.54531753 14.0000982,7.19518071 L14.0000982,17.8049225 C13.9963483,18.1202685 14.1000871,18.4252859 14.2875671,18.6492881 C14.4750471,18.8747466 14.7325097,19 15,19 C15.2674903,19 15.5236858,18.8747466 15.711185,18.6492881 C15.8999129,18.4253047 16.0036517,18.1202911 15.9999018,17.8049225 L15.9999018,7.19518071 C16.0036517,6.87688846 15.8974139,6.57040367 15.706184,6.34493015 C15.514954,6.11947173 15.2537222,5.99569329 14.9837682,6.00011449 L14.983733,6.0000994 Z" id="Fill-2"/><path d="M16,23 C16,24.3333333 14,24.3333333 14,23 C14,21.6666667 16,21.6666667 16,23" id="Fill-3"/></g></g></g></svg>

<svg xmlns="http://www.w3.org/2000/svg" width="30" height="30" viewBox="0 0 30 30">
    <g fill="#5D6D74" fill-rule="evenodd">
        <path d="M15 .003C11.546.003 8.938 0 6.88.233c-2.059.232-3.662.715-4.8 1.854C.94 3.227.458 4.83.227 6.887-.002 8.944 0 11.551 0 15.002c0 3.453-.001 6.06.234 8.117.235 2.058.725 3.663 1.866 4.8 1.141 1.136 2.742 1.62 4.799 1.852 2.055.232 4.66.229 8.102.229 3.443 0 6.046.001 8.101-.232 2.057-.234 3.661-.723 4.8-1.862 1.14-1.138 1.63-2.74 1.864-4.798.235-2.057.234-4.662.234-8.109 0-3.445.003-6.05-.228-8.105-.23-2.057-.714-3.66-1.85-4.8-1.137-1.14-2.74-1.627-4.8-1.862C21.065 0 18.455 0 14.999 0L15 .003zm0 2.308c3.455 0 6.031.01 7.865.219 1.833.21 2.828.597 3.425 1.197.598.599.987 1.595 1.193 3.428.207 1.832.212 4.405.212 7.849s-.011 6.016-.22 7.847c-.21 1.832-.6 2.827-1.202 3.428-.601.6-1.6.991-3.43 1.199-1.83.21-4.4.22-7.84.22-3.442 0-6.012-.008-7.844-.214-1.83-.206-2.827-.596-3.429-1.194-.6-.599-.99-1.596-1.201-3.429-.21-1.831-.221-4.406-.221-7.855 0-3.452.006-6.026.212-7.858.206-1.833.596-2.828 1.193-3.425.597-.597 1.59-.988 3.423-1.194 1.833-.206 4.41-.214 7.865-.214v-.004z"/>
        <path d="M14.984 6c-.551.01-.991.545-.984 1.195v10.61c-.004.315.1.62.288.844.187.226.445.351.712.351a.926.926 0 0 0 .711-.35c.189-.225.293-.53.289-.845V7.195a1.297 1.297 0 0 0-.294-.85.93.93 0 0 0-.722-.345zM16 23c0 1.333-2 1.333-2 0s2-1.333 2 0"/>
    </g>
</svg>
